X: 20942
T: the Small Pin Cushion
N: aka Haste to the Wedding
%R: jig
B: James Oswald "The Caledonian Pocket Companion" v.2 p.94 #2
Z: 2019 John Chambers <jc:trillian.mit.edu>
M: 6/8
L: 1/8
K: D
"_Moderately Quick"A |\
AFG Aaf | {f}ede fdB | AFA (B/c/d)F | E2E E2A |\
AFG Aaf | Tede fdB | AFA (B/c/d)F | D2D D2 :|
|: a |\
(af)a (af)a | (bg)b (bg)b | (af)a (ag)f | e2e e2(f/g/) |\
a3 Tf3 | Tede fdB | AFA faf | d2d d2 :|

